public/assets/icons/navbar/ic_edit.svg

<svg class="svg-icon" style="width: 1em;height: 1em;vertical-align: middle;fill: currentColor;overflow: hidden;" viewBox="0 0 1024 1024" version="1.1" xmlns="http://www.w3.org/2000/svg"><path d="M423.381333 85.333333a42.666667 42.666667 0 0 1 4.992 85.034667L423.381333 170.666667H246.186667a75.52 75.52 0 0 0-75.221334 69.290666L170.666667 246.186667v531.712c0 39.594667 30.506667 72.106667 69.290666 75.221333L246.186667 853.333333h531.712a75.52 75.52 0 0 0 75.221333-69.290666L853.333333 777.813333v-177.237333a42.666667 42.666667 0 0 1 85.034667-4.992l0.298667 4.992v177.237333a160.853333 160.853333 0 0 1-152.533334 160.597334L777.813333 938.666667H246.144a160.853333 160.853333 0 0 1-160.597333-152.533334L85.333333 777.813333V246.144a160.853333 160.853333 0 0 1 152.533334-160.597333L246.186667 85.333333h177.237333z" fill="#000000" /><path d="M716.501333 119.168a133.162667 133.162667 0 0 1 194.133334 182.186667l-5.802667 6.144-362.666667 362.666666a42.666667 42.666667 0 0 1-24.576 12.117334L512 682.666667H384a42.666667 42.666667 0 0 1-42.368-37.674667L341.333333 640v-128a42.666667 42.666667 0 0 1 8.789334-25.941333l3.712-4.266667 362.666666-362.666667z m128 60.330667a47.872 47.872 0 0 0-63.488-3.712l-4.181333 3.712L426.666667 529.664v67.626667h67.626666l350.208-350.122667a47.872 47.872 0 0 0 3.712-63.488l-3.712-4.181333z" fill="#000000" /><path d="M652.501333 183.168a42.666667 42.666667 0 0 1 56.32-3.541333l4.010667 3.541333 128 128a42.666667 42.666667 0 0 1-56.32 63.872l-4.010667-3.541333-128-128a42.666667 42.666667 0 0 1 0-60.330667z" fill="#000000" /></svg>

<svg xmlns="http://www.w3.org/2000/svg" viewBox="0 0 1024 1024" fill="currentColor" overflow="hidden" xmlns:v="https://vecta.io/nano"><path d="M423.381 85.333a42.667 42.667 0 0 1 4.992 85.035l-4.992.299H246.187a75.52 75.52 0 0 0-75.221 69.291l-.299 6.229v531.712c0 39.595 30.507 72.107 69.291 75.221l6.229.213h531.712a75.52 75.52 0 0 0 75.221-69.291l.213-6.229V600.576a42.667 42.667 0 0 1 85.035-4.992l.299 4.992v177.237A160.853 160.853 0 0 1 786.134 938.41l-8.32.256h-531.67A160.853 160.853 0 0 1 85.547 786.133l-.213-8.32V246.144A160.853 160.853 0 0 1 237.867 85.547l8.32-.213h177.237zm293.12 33.835a133.163 133.163 0 0 1 194.133 182.187l-5.803 6.144-362.667 362.667a42.667 42.667 0 0 1-24.576 12.117l-5.589.384H384a42.667 42.667 0 0 1-42.368-37.675l-.299-4.992V512a42.667 42.667 0 0 1 8.789-25.941l3.712-4.267 362.667-362.667zm128 60.331a47.872 47.872 0 0 0-63.488-3.712l-4.181 3.712-350.165 350.165v67.627h67.627l350.208-350.123a47.872 47.872 0 0 0 3.712-63.488l-3.712-4.181z"/><path d="M652.501 183.168a42.667 42.667 0 0 1 56.32-3.541l4.011 3.541 128 128a42.667 42.667 0 0 1-56.32 63.872l-4.011-3.541-128-128a42.667 42.667 0 0 1 0-60.331z"/></svg>
